X:948
T:Maggie Shanley's
S:Martin Mulvihill, 1978 Trad Fiddling from Limerick
Z:Nigel Gatherer
M:12/8
L:1/8
K:A
A2B c2e dcB A3 | A2B c2e f3 e3 | A2B c2e dcB A2B | c2e dcB A3 A3 :|
f2e c2e dcB A3 | f2e c2e f3 e3 | f2e c2e dcB A2B | c2e dcB A3 A3 :|
<end>
<start>
